coreui/free/cil-mug-tea.svg

<svg xmlns="http://www.w3.org/2000/svg" viewBox="0 0 512 512">
  <path fill="var(--ci-primary-color, currentColor)" d="M436.574,120H352V64H32V408a64.072,64.072,0,0,0,64,64H288a64.072,64.072,0,0,0,64-64v-8h84.574A59.493,59.493,0,0,0,496,340.574V179.426A59.493,59.493,0,0,0,436.574,120Zm-275.2,118.894L192,269.521v57.373H128V269.521l30.627-30.627ZM464,340.574A27.457,27.457,0,0,1,436.574,368H320v40a32.036,32.036,0,0,1-32,32H96a32.036,32.036,0,0,1-32-32V96h80V208.266l-48,48V358.894H224V256.266l-48-48V96H320v56H436.574A27.457,27.457,0,0,1,464,179.426Z" class="ci-primary"/>
  <path fill="var(--ci-primary-color, currentColor)" d="M416,180H320V340h96a20.023,20.023,0,0,0,20-20V200A20.023,20.023,0,0,0,416,180ZM404,308H352V212h52Z" class="ci-primary"/>
</svg>

<svg viewBox="0 0 512 512" xmlns="http://www.w3.org/2000/svg"><g><path d="M436.574 120h-84.58V64h-320v344 0c.03 35.32 28.67 63.96 64 64h192v0c35.32-.04 63.96-28.68 64-64v-8h84.57v0c32.8-.04 59.38-26.63 59.42-59.43V179.422v0c-.04-32.81-26.63-59.39-59.43-59.43Zm-275.2 118.894l30.62 30.62v57.37h-64v-57.38l30.62-30.63ZM464 340.574v0c-.02 15.13-12.29 27.4-27.43 27.42H319.99v40 -.001c-.02 17.66-14.34 31.98-32 32h-192 0c-17.67-.02-31.99-14.34-32-32v-312h80v112.26l-48 48v102.62h128V256.24l-48-48V95.97h144v56h116.57v0c15.13.01 27.4 12.28 27.42 27.42Z"/><path d="M416 180h-96v160h96 -.001c11.04-.02 19.98-8.96 20-20V200v0c-.02-11.05-8.96-19.99-20-20Zm-12 128h-52v-96h52Z"/></g></svg>
